src/assets/images/icons/icon-info.svg

<?xml version="1.0" encoding="UTF-8"?>
<svg width="24px" height="24px" viewBox="0 0 24 24" version="1.1" xmlns="http://www.w3.org/2000/svg" xmlns:xlink="http://www.w3.org/1999/xlink">
    <!-- Generator: Sketch 52.6 (67491) - http://www.bohemiancoding.com/sketch -->
    <title>icon-info</title>
    <desc>Created with Sketch.</desc>
    <g id="Page-1" stroke="none" stroke-width="1" fill="none" fill-rule="evenodd">
        <g id="icon-info" fill="#EF8933">
            <path d="M12,24 C5.373,24 0,18.627 0,12 C0,5.373 5.373,0 12,0 C18.627,0 24,5.373 24,12 C24,18.627 18.627,24 12,24 Z M12,2 C6.477,2 2,6.477 2,12 C2,17.523 6.477,22 12,22 C17.523,22 22,17.523 22,12 C22,6.477 17.523,2 12,2 Z M12,18 C11.4477153,18 11,17.5522847 11,17 L11,11 C11,10.4477153 11.4477153,10 12,10 C12.5522847,10 13,10.4477153 13,11 L13,17 C13,17.5522847 12.5522847,18 12,18 Z M12,8 C11.4477153,8 11,7.55228475 11,7 C11,6.44771525 11.4477153,6 12,6 C12.5522847,6 13,6.44771525 13,7 C13,7.55228475 12.5522847,8 12,8 Z" id="Shape"></path>
        </g>
    </g>
</svg>

<svg xmlns="http://www.w3.org/2000/svg" width="24" height="24">
    <path fill="#60DC97" fill-rule="evenodd" d="M12 24C5.373 24 0 18.627 0 12S5.373 0 12 0s12 5.373 12 12-5.373 12-12 12zm0-22C6.477 2 2 6.477 2 12s4.477 10 10 10 10-4.477 10-10S17.523 2 12 2zm0 16a1 1 0 0 1-1-1v-6a1 1 0 0 1 2 0v6a1 1 0 0 1-1 1zm0-10a1 1 0 1 1 0-2 1 1 0 0 1 0 2z"/>
</svg>
